X: 10093
M: C
L: 1/8
K: D
|:\
d2fd ceAe | d2fd ceAe |\
dcde fgaf | edcB cAec |\
d2fd ceAe | d2fd ceAe |
dcde fgaf | edcB A2A2 :|\
|:\
fdfa g2g2 | eceg f2f2 |\
dfaf dfbg | fedc d2d2 :|\
|:\
|:\
ggbg fgaf | gfed cBcA |\
ggbg fgaf | gedc d2d2 :|


